public/cloud-icons/azure/storage/storage-account-blob-inventory.svg

<?xml version="1.0" encoding="UTF-8" standalone="no"?>
<!-- Generated by Microsoft Visio, SVG Export Storage Account Blob inventory.svg Page-1 -->

<svg
   xmlns:dc="http://purl.org/dc/elements/1.1/"
   xmlns:cc="http://creativecommons.org/ns#"
   xmlns:rdf="http://www.w3.org/1999/02/22-rdf-syntax-ns#"
   xmlns:svg="http://www.w3.org/2000/svg"
   xmlns="http://www.w3.org/2000/svg"
   xmlns:sodipodi="http://sodipodi.sourceforge.net/DTD/sodipodi-0.dtd"
   xmlns:inkscape="http://www.inkscape.org/namespaces/inkscape"
   width="0.78735679in"
   height="0.78738052in"
   viewBox="0 0 56.689597 56.691708"
   xml:space="preserve"
   class="st7"
   version="1.1"
   id="svg50"
   sodipodi:docname="Storage Account Blob inventory.svg"
   style="font-size:12px;overflow:visible;color-interpolation-filters:sRGB;fill:none;fill-rule:evenodd;stroke-linecap:square;stroke-miterlimit:3"
   inkscape:version="0.92.5 (2060ec1f9f, 2020-04-08)"><metadata
   id="metadata54"><rdf:RDF><cc:Work
       rdf:about=""><dc:format>image/svg+xml</dc:format><dc:type
         rdf:resource="http://purl.org/dc/dcmitype/StillImage" /></cc:Work></rdf:RDF></metadata><sodipodi:namedview
   pagecolor="#ffffff"
   bordercolor="#666666"
   borderopacity="1"
   objecttolerance="10"
   gridtolerance="10"
   guidetolerance="10"
   inkscape:pageopacity="0"
   inkscape:pageshadow="2"
   inkscape:window-width="640"
   inkscape:window-height="480"
   id="namedview52"
   showgrid="false"
   inkscape:zoom="1.4193119"
   inkscape:cx="37.795128"
   inkscape:cy="37.786193"
   inkscape:window-x="0"
   inkscape:window-y="0"
   inkscape:window-maximized="0"
   inkscape:current-layer="svg50" />
	<style
   type="text/css"
   id="style2">
	<![CDATA[
		.st1 {fill:#37c2b1;stroke:none;stroke-linecap:butt;stroke-width:34}
		.st2 {fill:#3cd4c2;stroke:none;stroke-linecap:butt;stroke-width:34}
		.st3 {fill:#42e8ca;stroke:none;stroke-linecap:butt;stroke-width:34}
		.st4 {fill:url(#grad0-12);stroke:none;stroke-linecap:butt;stroke-width:34}
		.st5 {fill:#f2f2f2;stroke:none;stroke-linecap:butt;stroke-width:34}
		.st6 {fill:#ffffff;stroke:none;stroke-linecap:butt;stroke-width:34}
		.st7 {fill:none;fill-rule:evenodd;font-size:12px;overflow:visible;stroke-linecap:square;stroke-miterlimit:3}
	]]>
	</style>

	<defs
   id="Patterns_And_Gradients">
		<linearGradient
   id="grad0-12"
   x1="-5.6934988e-09"
   y1="175.4408"
   x2="33.789593"
   y2="175.4408"
   gradientTransform="scale(1.6777355,0.59604151)"
   gradientUnits="userSpaceOnUse">
			<stop
   offset="0"
   stop-color="#5ea0ef"
   stop-opacity="1"
   id="stop4" />
			<stop
   offset="1"
   stop-color="#0078d4"
   stop-opacity="1"
   id="stop6" />
		</linearGradient>
	</defs>
	<g
   id="g48"
   transform="translate(-34.000441,-34.002592)">
		<title
   id="title10">Page-1</title>
		<g
   id="group21501-1"
   transform="translate(34,-34.0157)">
			<title
   id="title12">Storage Account Blob inventory.21501</title>
			<g
   id="group21502-2">
				<title
   id="title14">Sheet.21502</title>
				<g
   id="shape21503-3"
   transform="translate(16.9764,-14.7717)">
					<title
   id="title16">Sheet.21503</title>
					<path
   d="m 0,123.31 a 1.39531,1.39531 -180 0 0 1.4,1.4 h 30.7 a 1.39531,1.39531 -180 0 0 1.4,-1.4 V 84.18 A 1.39531,1.39531 -180 0 0 32.1,82.79 H 1.4 A 1.39531,1.39531 -180 0 0 0,84.18 Z"
   class="st1"
   id="path18"
   inkscape:connector-curvature="0"
   style="fill:#37c2b1;stroke:none;stroke-width:34;stroke-linecap:butt" />
				</g>
				<g
   id="shape21504-5"
   transform="translate(11.9118,-10.2488)">
					<title
   id="title21">Sheet.21504</title>
					<path
   d="m 0,123.31 a 1.39531,1.39531 -180 0 0 1.4,1.4 h 30.7 a 1.39531,1.39531 -180 0 0 1.4,-1.4 V 84.18 A 1.39531,1.39531 -180 0 0 32.1,82.79 H 1.4 A 1.39531,1.39531 -180 0 0 0,84.18 Z"
   class="st2"
   id="path23"
   inkscape:connector-curvature="0"
   style="fill:#3cd4c2;stroke:none;stroke-width:34;stroke-linecap:butt" />
				</g>
				<g
   id="shape21505-7"
   transform="translate(6.7937,-5.68189)">
					<title
   id="title26">Sheet.21505</title>
					<path
   d="m 0,123.31 a 1.39531,1.39531 -180 0 0 1.4,1.4 h 30.7 a 1.39531,1.39531 -180 0 0 1.4,-1.4 V 84.18 A 1.39531,1.39531 -180 0 0 32.1,82.79 H 1.4 A 1.39531,1.39531 -180 0 0 0,84.18 Z"
   class="st3"
   id="path28"
   inkscape:connector-curvature="0"
   style="fill:#42e8ca;stroke:none;stroke-width:34;stroke-linecap:butt" />
				</g>
				<g
   id="shape21506-9">
					<title
   id="title31">Sheet.21506</title>
					<path
   d="m 0,122.82 a 1.88981,1.88981 -180 0 0 1.89,1.89 H 54.8 a 1.88981,1.88981 -180 0 0 1.89,-1.89 V 106.46 A 1.88981,1.88981 -180 0 0 54.8,104.57 H 1.89 A 1.88981,1.88981 -180 0 0 0,106.46 Z"
   class="st4"
   id="path33"
   inkscape:connector-curvature="0"
   style="fill:url(#grad0-12);stroke:none;stroke-width:34;stroke-linecap:butt" />
				</g>
				<g
   id="shape21507-13"
   transform="translate(20.2709,-12.2583)">
					<title
   id="title36">Sheet.21507</title>
					<path
   d="m 0,123.25 a 1.45515,1.45515 -180 0 0 1.46,1.46 H 14.7 a 1.45515,1.45515 -180 0 0 1.45,-1.46 v 0 A 1.45515,1.45515 -180 0 0 14.7,121.8 H 1.46 A 1.45515,1.45515 -180 0 0 0,123.25 Z"
   class="st5"
   id="path38"
   inkscape:connector-curvature="0"
   style="fill:#f2f2f2;stroke:none;stroke-width:34;stroke-linecap:butt" />
				</g>
				<g
   id="shape21508-15"
   transform="translate(11.9118,-26.737)">
					<title
   id="title41">Sheet.21508</title>
					<path
   d="M 22.2,114.28 H 7.74 A 0.314961,0.314961 0 0 1 7.425039,113.94929 L 7.43,112.86 a 0.314961,0.314961 0 0 1 0.314961,-0.33071 L 22.2,112.53 a 0.333858,0.333858 0 0 1 0.333858,0.33071 L 22.54,113.94 a 0.333858,0.333858 0 0 1 -0.333858,0.34016 z m -17.01,1.05 v -3.86 A 0.664567,0.664567 -180 0 0 4.509685,110.81173 L 0.66,110.82 a 0.664567,0.664567 -180 0 0 -0.664567,0.66457 L 0,115.32 a 0.664567,0.664567 -180 0 0 0.664567,0.66457 L 4.51,115.99 a 0.664567,0.664567 -180 0 0 0.667717,-0.66457 z m 17.36,7.35 v -1.09 a 0.337008,0.337008 -180 0 0 -0.333858,-0.33386 L 7.74,121.26 a 0.333858,0.333858 -180 0 0 -0.314961,0.33386 L 7.43,122.67 a 0.330709,0.330709 -180 0 0 0.314961,0.33386 L 22.2,123 a 0.333858,0.333858 -180 0 0 0.333858,-0.33386 z m -17.36,1.39 v -3.86 A 0.664567,0.664567 -180 0 0 4.522283,119.54543 L 0.66,119.54 a 0.664567,0.664567 -180 0 0 -0.664567,0.66457 L 0,124.04 a 0.667717,0.667717 -180 0 0 0.664567,0.66457 L 4.51,124.71 a 0.667717,0.667717 -180 0 0 0.667717,-0.66457 z"
   class="st6"
   id="path43"
   inkscape:connector-curvature="0"
   style="fill:#ffffff;stroke:none;stroke-width:34;stroke-linecap:butt" />
				</g>
			</g>
		</g>
	</g>
</svg>

<svg xmlns="http://www.w3.org/2000/svg" xml:space="preserve" width="75.586" height="75.589" style="font-size:12px;overflow:visible;color-interpolation-filters:sRGB;fill-rule:evenodd;stroke-linecap:square;stroke-miterlimit:3" viewBox="0 0 56.69 56.692"><defs><linearGradient id="a" x1="0" x2="33.79" y1="175.441" y2="175.441" gradientTransform="scale(1.67774 .59604)" gradientUnits="userSpaceOnUse"><stop offset="0" stop-color="#5ea0ef"/><stop offset="1" stop-color="#0078d4"/></linearGradient></defs><g transform="translate(-34 -34.003)"><title>Page-1</title><g transform="translate(34 -34.016)"><title>Storage Account Blob inventory.21501</title><title>Sheet.21502</title><g transform="translate(16.976 -14.772)"><title>Sheet.21503</title><path d="M0 123.31a1.395 1.395-180 0 0 1.4 1.4h30.7a1.395 1.395-180 0 0 1.4-1.4V84.18a1.395 1.395-180 0 0-1.4-1.39H1.4A1.395 1.395-180 0 0 0 84.18Z" style="fill:#37c2b1;stroke:none;stroke-width:34;stroke-linecap:butt"/></g><g transform="translate(11.912 -10.249)"><title>Sheet.21504</title><path d="M0 123.31a1.395 1.395-180 0 0 1.4 1.4h30.7a1.395 1.395-180 0 0 1.4-1.4V84.18a1.395 1.395-180 0 0-1.4-1.39H1.4A1.395 1.395-180 0 0 0 84.18Z" style="fill:#3cd4c2;stroke:none;stroke-width:34;stroke-linecap:butt"/></g><g transform="translate(6.794 -5.682)"><title>Sheet.21505</title><path d="M0 123.31a1.395 1.395-180 0 0 1.4 1.4h30.7a1.395 1.395-180 0 0 1.4-1.4V84.18a1.395 1.395-180 0 0-1.4-1.39H1.4A1.395 1.395-180 0 0 0 84.18Z" style="fill:#42e8ca;stroke:none;stroke-width:34;stroke-linecap:butt"/></g><title>Sheet.21506</title><path d="M0 122.82a1.89 1.89-180 0 0 1.89 1.89H54.8a1.89 1.89-180 0 0 1.89-1.89v-16.36a1.89 1.89-180 0 0-1.89-1.89H1.89A1.89 1.89-180 0 0 0 106.46Z" style="fill:url(#a);stroke:none;stroke-width:34;stroke-linecap:butt"/><g transform="translate(20.27 -12.258)"><title>Sheet.21507</title><path d="M0 123.25a1.455 1.455-180 0 0 1.46 1.46H14.7a1.455 1.455-180 0 0 1.45-1.46 1.455 1.455-180 0 0-1.45-1.45H1.46A1.455 1.455-180 0 0 0 123.25" style="fill:#f2f2f2;stroke:none;stroke-width:34;stroke-linecap:butt"/></g><g transform="translate(11.912 -26.737)"><title>Sheet.21508</title><path d="M22.2 114.28H7.74a.315.315 0 0 1-.315-.33l.005-1.09a.315.315 0 0 1 .315-.33H22.2a.334.334 0 0 1 .334.33l.006 1.08a.334.334 0 0 1-.334.34zm-17.01 1.05v-3.86a.665.665-180 0 0-.68-.658l-3.85.008a.665.665-180 0 0-.665.665L0 115.32a.665.665-180 0 0 .665.665l3.845.005a.665.665-180 0 0 .668-.665zm17.36 7.35v-1.09a.337.337-180 0 0-.334-.334l-14.476.004a.334.334-180 0 0-.315.334l.005 1.076a.33.33-180 0 0 .315.334L22.2 123a.334.334-180 0 0 .334-.334zm-17.36 1.39v-3.86a.665.665-180 0 0-.668-.665L.66 119.54a.665.665-180 0 0-.665.665L0 124.04a.67.67-180 0 0 .665.665l3.845.005a.67.67-180 0 0 .668-.665z" style="fill:#fff;stroke:none;stroke-width:34;stroke-linecap:butt"/></g></g></g></svg>
